X:1
T:Title
%%score { ( 1 3 4 ) | ( 2 5 6 ) }
L:1/8
M:6/8
K:Bb
V:1 treble nm="Grand Piano"
V:3 treble 
V:4 treble 
V:2 bass 
V:5 bass 
V:6 bass 
V:1
 z3 z2[Q:1/4=100] [DB] | [Fd]>[Ec][DB] [DB][EA][FB] | [Gc][GB][EG] [DF]2 [DF] | %3
 [DB]>[DB][DB] [FB][EA][DB] | [Fc]3- [Fc]2 [DB] | [Fd]>[Ec][DB] [DB][EA][FB] | %6
 [Gc][GB][EG] [DF]2 [DF] | B>BB ddc |[M:5/8] [B,DB]-[B,DB]- [B,DB]3 |[M:1/8] B |[M:3/4] d4 z2 | %11
 B6 | [DB]2 [DB][FB] [EA][DB] | [Fc]4- [Fc][DB] | [Fd]>[Ec] [DB][DB] [EA][FB] | %15
 [Gc][GB] [EG] [DF]2 [DF] | B>B B d2 c |[M:5/8] [DB]-[DB]- [DB]3 |] %18
V:2
 z3 z2 [B,,F,] | [B,,B,]>[B,,B,][B,,F,] [B,,F,][C,F,][D,B,] | [E,B,][E,B,][E,B,] [B,,B,]2 [B,,B,] | %3
 [B,,F,]>[B,,F,][B,,F,] [D,B,][C,F,][B,,B,] | [F,A,]3- [F,A,]2 [B,,F,] | %5
 [B,,B,]>[B,,B,][B,,F,] [B,,F,][C,F,][D,B,] | [E,B,][E,B,][E,B,] [B,,B,]2 [B,,B,] | %7
 [G,B,D]>[G,B,D][G,B,D] [F,B,F][F,B,F][F,A,E] |[M:5/8] B,,-B,,- B,,3 |[M:1/8][K:treble] D | %10
[M:3/4] F4[K:bass] z2 | z6 | [B,,F,]2 [B,,F,][D,B,] [C,F,][B,,B,] | [F,A,]4- [F,A,][B,,F,] | %14
 [B,,B,]>[B,,B,] [B,,F,][B,,F,] [C,F,][D,B,] | [E,B,][E,B,] [E,B,] [B,,B,]2 [B,,B,] | %16
 [G,B,D]>[G,B,D] [G,B,D] [F,B,F]2 [F,A,E] |[M:5/8] [B,,B,]-[B,,B,]- [B,,B,]3 |] %18
V:3
 x6 | x6 | x6 | x6 | x6 | x6 | x6 | x6 |[M:5/8] x5 |[M:1/8] x |[M:3/4] z2 .B,2 _d=d | %11
 z2 E D2 [DF] | x6 | x6 | x6 | x6 | x6 |[M:5/8] x5 |] %18
V:4
 x6 | x6 | x6 | x6 | x6 | x6 | x6 | x6 |[M:5/8] x5 |[M:1/8] x |[M:3/4] z2 z B,3 | x6 | x6 | x6 | %14
 x6 | x6 | x6 |[M:5/8] x5 |] %18
V:5
 x6 | x6 | x6 | x6 | x6 | x6 | x6 | x6 |[M:5/8] x5 |[M:1/8][K:treble] x | %10
[M:3/4] z2[K:bass] .B,,2 =EF | [F,D]2 [B,,G,] [B,,F,]2 [B,,B,] | x6 | x6 | x6 | x6 | x6 | %17
[M:5/8] x5 |] %18
V:6
 x6 | x6 | x6 | x6 | x6 | x6 | x6 | x6 |[M:5/8] x5 |[M:1/8][K:treble] x | %10
[M:3/4] z2[K:bass] z B,,3- | B,,2 z2 z2 | x6 | x6 | x6 | x6 | x6 |[M:5/8] x5 |] %18

